img/header/header-location.svg

<svg width="26" height="28" viewBox="0 0 26 28" fill="none" xmlns="http://www.w3.org/2000/svg">
<path d="M19.6012 6.53488C17.6965 3.63256 14.5523 2 11.0151 2C7.50814 2 4.36395 3.63256 2.39884 6.53488C0.433722 9.37674 -0.0197669 13.0047 1.18954 16.1791C1.52209 17.0256 2.03605 17.9023 2.70116 18.6884L10.35 27.6977C10.5314 27.8791 10.7128 28 10.9849 28C11.257 28 11.4384 27.8791 11.6198 27.6977L19.2988 18.6884C19.9639 17.9023 20.5081 17.0558 20.8105 16.1791C22.0198 13.0047 21.5663 9.37674 19.6012 6.53488ZM11.0151 17.2372C8.41511 17.2372 6.2686 15.0907 6.2686 12.4907C6.2686 9.8907 8.41511 7.74419 11.0151 7.74419C13.6151 7.74419 15.7616 9.8907 15.7616 12.4907C15.7616 15.0907 13.6453 17.2372 11.0151 17.2372Z" fill="white"/>
<circle cx="21" cy="5" r="5" fill="#56A1D4"/>
<circle cx="21" cy="5" r="3" fill="#020303"/>
</svg>

<svg width="26" height="28" fill="none" xmlns="http://www.w3.org/2000/svg"><path d="M19.601 6.535C17.697 3.633 14.552 2 11.015 2 7.508 2 4.364 3.633 2.4 6.535c-1.965 2.842-2.419 6.47-1.21 9.644a9.102 9.102 0 001.512 2.51l7.649 9.009c.181.181.363.302.635.302s.453-.12.635-.302l7.679-9.01c.665-.786 1.21-1.632 1.512-2.509 1.209-3.174.755-6.802-1.21-9.644zm-8.586 10.702c-2.6 0-4.746-2.146-4.746-4.746 0-2.6 2.146-4.747 4.746-4.747 2.6 0 4.747 2.147 4.747 4.747s-2.117 4.746-4.747 4.746z" fill="#fff"/><circle cx="21" cy="5" r="5" fill="#56A1D4"/><circle cx="21" cy="5" r="3" fill="#020303"/></svg>
